X:1
T:Willibrord, 87.87 D
T:Willibrord, 87.87 D
T:Charles Edward Pollock, 1906
T:Public Domain Courtesy of the Cyber Hymnal™
C:Charles Edward Pollock, 1906
Z:Public Domain
Z:Courtesy of the Cyber Hymnal™
%%score 1 ( 2 3 )
L:1/8
Q:1/4=110
M:4/4
K:Ab
V:1 treble 
V:2 bass 
V:3 bass 
V:1
 [CA]2 | [Ec]3 [Ec] [Fd]2 [Ec]2 | [Ec]2 [EB]4 [EB]2 | [EA]2 [EG]2 [Ec]3 [DB] | [CA]6 [CE]2 | %5
 [DF]3 [DF] [FA]2 [DF]2 | [DF]2 [CE]4 [EA]2 | [EB]3 [E=A] [EB]2 [E=B]2 | [Ec]6 [Ec]2 | %9
 [Fd]3 [Fd] [Fd]2 [Fd]2 | [Fd]2 [Ec]4 [Ec]2 | [EB]2 [EB]2 [=DB]3 [Dc] | [EB]6 [EB]2 | %13
 [Ec]2 [Ae]2 [Ae]2 [Ec]2 | [DB]2 [FA]4 [DF]2 | [CE]2 [CA]2 [DB]3 [DG] | [CA]6 |] %17
V:2
 [A,,A,]2 | [A,,A,]3 [A,,A,] [A,,A,]2 [A,,A,]2 | [E,A,]2 [E,A,]4 [E,D]2 | %3
 [E,C]2 [E,B,]2 [E,A,]3 [E,G,] | [A,,A,]6 [A,,A,]2 | [D,A,]3 [D,A,] [D,A,]2 [D,A,]2 | %6
 [A,,A,]2 [A,,A,]4 [C,A,]2 | [E,G,]3 [E,^F,] [E,G,]2 [E,G,]2 | [A,,A,]6 [A,,A,]2 | %9
 [D,A,]3 [D,A,] [D,A,]2 [D,A,]2 | [A,,A,]2 [A,,A,]4 [A,,A,]2 | [E,G,]2 [E,G,]2 [B,,F,]3 [B,,A,] | %12
 [E,G,]6 [E,G,]2 | A,2 [A,C]2 [A,C]2 [C,A,]2 | [D,F,]2 [D,A,]4 [D,A,]2 | %15
 [E,A,]2 [E,A,]2 [E,G,]3 E, | [A,,E,]6 |] %17
V:3
 x2 | x8 | x8 | x8 | x8 | x8 | x8 | x8 | x8 | x8 | x8 | x8 | x8 | A,2 x6 | x8 | x7 E, | x6 |] %17

